assets/icons/bowtie/1.22/uE69B-view-list-group.svg

<svg xmlns="http://www.w3.org/2000/svg" viewBox="0 0 448 448" enable-background="new 0 0 448 448"><path d="M0 32v160h96v256h352v-416h-448zm416 32v96h-256v-96h256zm-384 96v-96h96v96h-96zm192 32v96h-96v-96h96zm-96 224v-96h96v96h-96zm288 0h-160v-96h160v96zm0-128h-160v-96h160v96z"/></svg>

<svg xmlns="http://www.w3.org/2000/svg" viewBox="0 0 448 448"><path d="M0 32v160h96v256h352V32H0zm416 32v96H160V64h256zM32 160V64h96v96H32zm192 32v96h-96v-96h96zm-96 224v-96h96v96h-96zm288 0H256v-96h160v96zm0-128H256v-96h160v96z"/></svg>
